X:1
T:Pat O'Brien
M:6/8
L:1/4
K:D
 D/2| A G/2F/2-G/2 A/2| G D/2- D D/2| E3/2 E E/2| D3/2- D D/2| D F/2 A A/2|\
 d3/2 e e/2| d B/2 A E/2| F3/2- F D/2| D F/2 A/2B/2c/2| d d/2 e e/2|\
 d B/2 A E/2| F3/2- F D/2| D/2 F A F/2| A/2 A F D/4D/4| F E/2 D C/2|\
 D3/2- D||
